img/footer-image-item-02.svg

<svg width="492" height="381" fill="none" xmlns="http://www.w3.org/2000/svg"><path d="M66.074 167.478s1.617 86.071 115.01 142.071c78.302 38.672 164.301-22.679 176.873-31.815 12.571-9.137-108.851-73.814-108.851-73.814l-145.491-50.072-37.541 13.63zm40.147-74.172l-7.815-13.247s69.64-67.854 170.271-20.343c125.44 59.245 111.488 170.965 111.488 170.965l-38.446-8.027L106.221 93.306z" fill="#225B7E"/><path d="M415.256 326.658c1.36-15.855 8.646-46.257 18.241-53.855 9.595-7.598 36.937-54.412 24.279-51.393-12.658 3.019-52.356 18.768-67.98 13.665a64.141 64.141 0 01-11.524-5.414c-4.184-1.994-5.323-13.688-5.699-18.808-3.269-45.92-43.42-96.448-104.843-125.448-49.389-23.33-96.639-23.765-138.66-13.947-15.476 3.62-76.623 18.335-82.148 30.029-5.713 12.104 15.811 62.323 25.992 78.671 21.473 34.402 53.885 73.149 104.341 96.939 58.374 27.569 119.583 27.973 157.749 5.045 4.429-2.656 17.481-6.979 21.998-4.841 6.202 2.923 12.32 6.078 17.147 9.601 17.187 12.584 39.757 55.607 41.107 39.756z" fill="#255776"/><path d="M434.879 271.543l-2.687-.88c-3.394-1.007-6.705-2.291-9.987-3.295a290.4 290.4 0 00-9.28-3.093c-2.902-.914-5.555-1.731-7.873-2.284-4.597-1.184-7.906-1.234-8.874.532-.968 1.766 1.083 4.36 4.984 7.406a69.235 69.235 0 007.213 4.585c2.802 1.531 5.95 3.037 9.263 4.516 2.918 1.167 5.911 2.432 8.988 3.495 2.094-4.319 4.399-7.779 6.864-9.724.484-.395.948-.815 1.389-1.258zm-38.545-18.111c6.181 2.842 15.347 5.405 25.52 6.071 7.721.502 15.473.123 23.107-1.129a188.498 188.498 0 009.059-15.315 108.5 108.5 0 01-4.269 1.079 117.105 117.105 0 01-27.297 2.856c-9.016-.029-17.335-1.242-23.547-2.026a71.853 71.853 0 00-4.242-.507 29.424 29.424 0 00-3.357-.192c-1.924.046-3.21.477-3.606 1.404-.396.928.22 2.074 1.706 3.425.89.796 1.847 1.513 2.861 2.143 1.145.73 2.521 1.44 4.065 2.191zm23.875 46.938l-2.928-3.388-1.955-2.205c-.658-.721-1.367-1.398-2.05-2.112a276.716 276.716 0 00-4.125-4.045c-1.364-1.307-2.837-2.474-4.187-3.627-1.35-1.152-2.707-2.307-4.088-3.228a69.85 69.85 0 00-7.557-4.77c-4.652-2.291-7.986-3.017-9.168-1.39-1.182 1.627.407 4.633 3.614 8.27 1.573 1.873 3.451 4.032 5.665 6.253 1.108 1.081 2.156 2.363 3.321 3.581s2.381 2.444 3.565 3.75l3.605 3.996c.606.668 1.239 1.323 1.839 2.012l1.764 2.088 3.538 4.119 3.278 4.161c.797.989 1.552 1.965 2.287 2.935.819-5.142 2.058-10.835 3.582-16.4z" fill="#225B7E"/></svg>

<svg width="492" height="381" viewBox="0 0 492 381" fill="none" xmlns="http://www.w3.org/2000/svg">
<path d="M66.0736 167.478C66.0736 167.478 67.6909 253.549 181.084 309.549C259.386 348.221 345.385 286.87 357.957 277.734C370.528 268.597 249.106 203.92 249.106 203.92L103.615 153.848L66.0736 167.478Z" fill="#225B7E"/>
<path d="M106.221 93.3058L98.4057 80.0589C98.4057 80.0589 168.046 12.2047 268.677 59.7162C394.117 118.961 380.165 230.681 380.165 230.681L341.719 222.654L106.221 93.3058Z" fill="#225B7E"/>
<path d="M415.256 326.658C416.616 310.803 423.902 280.401 433.497 272.803C443.092 265.205 470.434 218.391 457.776 221.41C445.118 224.429 405.42 240.178 389.796 235.075C385.784 233.657 381.924 231.843 378.272 229.661C374.088 227.667 372.949 215.973 372.573 210.853C369.304 164.933 329.153 114.405 267.73 85.4049C218.341 62.0746 171.091 61.6399 129.07 71.4584C113.594 75.0774 52.4465 89.7928 46.9224 101.487C41.2089 113.591 62.733 163.81 72.9142 180.158C94.3872 214.56 126.799 253.307 177.255 277.097C235.629 304.666 296.838 305.07 335.004 282.142C339.433 279.486 352.485 275.163 357.002 277.301C363.204 280.224 369.322 283.379 374.149 286.902C391.336 299.486 413.906 342.509 415.256 326.658Z" fill="#255776"/>
<path d="M434.879 271.543L432.192 270.663C428.798 269.656 425.487 268.372 422.205 267.368C418.971 266.228 415.828 265.189 412.925 264.275C410.023 263.361 407.37 262.544 405.052 261.991C400.455 260.807 397.146 260.757 396.178 262.523C395.21 264.289 397.261 266.883 401.162 269.929C403.47 271.604 405.878 273.136 408.375 274.514C411.177 276.045 414.325 277.551 417.638 279.03C420.556 280.197 423.549 281.462 426.626 282.525C428.72 278.206 431.025 274.746 433.49 272.801C433.974 272.406 434.438 271.986 434.879 271.543Z" fill="#225B7E"/>
<path d="M396.334 253.432C402.515 256.274 411.681 258.837 421.854 259.503C429.575 260.005 437.327 259.626 444.961 258.374C448.114 253.58 451.299 248.223 454.02 243.059C452.629 243.436 451.211 243.805 449.751 244.138C440.795 246.157 431.633 247.115 422.454 246.994C413.438 246.965 405.119 245.752 398.907 244.968C397.366 244.736 395.939 244.576 394.665 244.461C393.55 244.333 392.43 244.269 391.308 244.269C389.384 244.315 388.098 244.746 387.702 245.673C387.306 246.601 387.922 247.747 389.408 249.098C390.298 249.894 391.255 250.611 392.269 251.241C393.414 251.971 394.79 252.681 396.334 253.432Z" fill="#225B7E"/>
<path d="M420.209 300.37L417.281 296.982L415.326 294.777C414.668 294.056 413.959 293.379 413.276 292.665C411.895 291.285 410.516 289.928 409.151 288.62C407.787 287.313 406.314 286.146 404.964 284.993C403.614 283.841 402.257 282.686 400.876 281.765C398.461 280.015 395.937 278.422 393.319 276.995C388.667 274.704 385.333 273.978 384.151 275.605C382.969 277.232 384.558 280.238 387.765 283.875C389.338 285.748 391.216 287.907 393.43 290.128C394.538 291.209 395.586 292.491 396.751 293.709C397.916 294.927 399.132 296.153 400.316 297.459L403.921 301.455C404.527 302.123 405.16 302.778 405.76 303.467L407.524 305.555L411.062 309.674L414.34 313.835C415.137 314.824 415.892 315.8 416.627 316.77C417.446 311.628 418.685 305.935 420.209 300.37Z" fill="#225B7E"/>
</svg>
